; generated by make_sample.py -- twisted hex vase
; a synthetic but structurally realistic slicer output
M82
G21
G90
G28
M104 S210
M109 S210
M140 S60
G92 E0
;LAYER:0
;Z:0.3
G0 F4200 X128.000 Y100.000 Z0.3
G1 X127.618 Y102.070 E0.08629
G1 X127.147 Y104.092 E0.17141
G1 X126.582 Y106.067 E0.25566
G1 X125.919 Y107.995 E0.33924
G1 X125.158 Y109.874 E0.42235
G1 X124.298 Y111.701 E0.50516
G1 X123.339 Y113.475 E0.58782
G1 X122.283 Y115.192 E0.67048
G1 X121.130 Y116.851 E0.75329
G1 X119.883 Y118.449 E0.83641
G1 X118.545 Y119.987 E0.91999
G1 X117.117 Y121.464 E1.00423
G1 X115.602 Y122.883 E1.08936
G1 X114.000 Y124.249 E1.17564
G1 X112.017 Y124.953 E1.26193
G1 X110.030 Y125.556 E1.34706
G1 X108.037 Y126.054 E1.43130
G1 X106.036 Y126.444 E1.51488
G1 X104.028 Y126.724 E1.59799
G1 X102.015 Y126.893 E1.68080
G1 X100.000 Y126.950 E1.76347
G1 X97.985 Y126.893 E1.84613
G1 X95.972 Y126.724 E1.92894
G1 X93.964 Y126.444 E2.01205
G1 X91.963 Y126.054 E2.09563
G1 X89.970 Y125.556 E2.17987
G1 X87.983 Y124.953 E2.26500
G1 X86.000 Y124.249 E2.35129
G1 X84.398 Y122.883 E2.43758
G1 X82.883 Y121.464 E2.52270
G1 X81.455 Y119.987 E2.60694
G1 X80.117 Y118.449 E2.69053
G1 X78.870 Y116.851 E2.77364
G1 X77.717 Y115.192 E2.85645
G1 X76.661 Y113.475 E2.93911
G1 X75.702 Y111.701 E3.02177
G1 X74.842 Y109.874 E3.10458
G1 X74.081 Y107.995 E3.18769
G1 X73.418 Y106.067 E3.27128
G1 X72.853 Y104.092 E3.35552
G1 X72.382 Y102.070 E3.44064
G1 X72.000 Y100.000 E3.52693
G1 X72.382 Y97.930 E3.61322
G1 X72.853 Y95.908 E3.69835
G1 X73.418 Y93.933 E3.78259
G1 X74.081 Y92.005 E3.86617
G1 X74.842 Y90.126 E3.94928
G1 X75.702 Y88.299 E4.03209
G1 X76.661 Y86.525 E4.11475
G1 X77.717 Y84.808 E4.19742
G1 X78.870 Y83.149 E4.28023
G1 X80.117 Y81.551 E4.36334
G1 X81.455 Y80.013 E4.44692
G1 X82.883 Y78.536 E4.53116
G1 X84.398 Y77.117 E4.61629
G1 X86.000 Y75.751 E4.70258
G1 X87.983 Y75.047 E4.78886
G1 X89.970 Y74.444 E4.87399
G1 X91.963 Y73.946 E4.95823
G1 X93.964 Y73.556 E5.04181
G1 X95.972 Y73.276 E5.12493
G1 X97.985 Y73.107 E5.20774
G1 X100.000 Y73.050 E5.29040
G1 X102.015 Y73.107 E5.37306
G1 X104.028 Y73.276 E5.45587
G1 X106.036 Y73.556 E5.53898
G1 X108.037 Y73.946 E5.62256
G1 X110.030 Y74.444 E5.70681
G1 X112.017 Y75.047 E5.79193
G1 X114.000 Y75.751 E5.87822
G1 X115.602 Y77.117 E5.96451
G1 X117.117 Y78.536 E6.04964
G1 X118.545 Y80.013 E6.13388
G1 X119.883 Y81.551 E6.21746
G1 X121.130 Y83.149 E6.30057
G1 X122.283 Y84.808 E6.38338
G1 X123.339 Y86.525 E6.46604
G1 X124.298 Y88.299 E6.54871
G1 X125.158 Y90.126 E6.63152
G1 X125.919 Y92.005 E6.71463
G1 X126.582 Y93.933 E6.79821
G1 X127.147 Y95.908 E6.88245
G1 X127.618 Y97.930 E6.96758
G1 X128.000 Y100.000 E7.05386
;LAYER:1
;Z:0.6
G1 F1500 X127.896 Y100.598 Z0.6 E7.05386
G1 X127.489 Y102.654 E7.16468
G1 X126.991 Y104.662 E7.24951
G1 X126.398 Y106.624 E7.33353
G1 X125.708 Y108.538 E7.41695
G1 X124.918 Y110.402 E7.49995
G1 X124.030 Y112.214 E7.58269
G1 X123.043 Y113.971 E7.66533
G1 X121.959 Y115.672 E7.74800
G1 X120.779 Y117.313 E7.83087
G1 X119.506 Y118.894 E7.91409
G1 X118.142 Y120.414 E7.99783
G1 X116.689 Y121.874 E8.08229
G1 X115.149 Y123.277 E8.16770
G1 X113.430 Y124.458 E8.25322
G1 X111.446 Y125.133 E8.33913
G1 X109.458 Y125.706 E8.42397
G1 X107.463 Y126.173 E8.50799
G1 X105.460 Y126.532 E8.59140
G1 X103.451 Y126.781 E8.67440
G1 X101.437 Y126.917 E8.75714
G1 X99.422 Y126.941 E8.83978
G1 X97.407 Y126.853 E8.92246
G1 X95.396 Y126.652 E9.00533
G1 X93.391 Y126.340 E9.08854
G1 X91.392 Y125.919 E9.17228
G1 X89.401 Y125.390 E9.25674
G1 X87.416 Y124.758 E9.34216
G1 X85.534 Y123.859 E9.42767
G1 X83.957 Y122.479 E9.51358
G1 X82.467 Y121.044 E9.59842
G1 X81.064 Y119.549 E9.68244
G1 X79.752 Y117.994 E9.76586
G1 X78.533 Y116.379 E9.84885
G1 X77.408 Y114.703 E9.93160
G1 X76.379 Y112.970 E10.01423
G1 X75.449 Y111.181 E10.09691
G1 X74.617 Y109.339 E10.17978
G1 X73.884 Y107.446 E10.26300
G1 X73.250 Y105.505 E10.34673
G1 X72.712 Y103.516 E10.43119
G1 X72.267 Y101.481 E10.51661
G1 X72.104 Y99.402 E10.60213
G1 X72.511 Y97.346 E10.68804
G1 X73.009 Y95.338 E10.77287
G1 X73.602 Y93.376 E10.85689
G1 X74.292 Y91.462 E10.94031
G1 X75.082 Y89.598 E11.02331
G1 X75.970 Y87.786 E11.10605
G1 X76.957 Y86.029 E11.18868
G1 X78.041 Y84.328 E11.27136
G1 X79.221 Y82.687 E11.35423
G1 X80.494 Y81.106 E11.43745
G1 X81.858 Y79.586 E11.52119
G1 X83.311 Y78.126 E11.60565
G1 X84.851 Y76.723 E11.69106
G1 X86.570 Y75.542 E11.77658
G1 X88.554 Y74.867 E11.86249
G1 X90.542 Y74.294 E11.94733
G1 X92.537 Y73.827 E12.03135
G1 X94.540 Y73.468 E12.11476
G1 X96.549 Y73.219 E12.19776
G1 X98.563 Y73.083 E12.28050
G1 X100.578 Y73.059 E12.36314
G1 X102.593 Y73.147 E12.44582
G1 X104.604 Y73.348 E12.52869
G1 X106.609 Y73.660 E12.61190
G1 X108.608 Y74.081 E12.69564
G1 X110.599 Y74.610 E12.78010
G1 X112.584 Y75.242 E12.86552
G1 X114.466 Y76.141 E12.95103
G1 X116.043 Y77.521 E13.03694
G1 X117.533 Y78.956 E13.12178
G1 X118.936 Y80.451 E13.20580
G1 X120.248 Y82.006 E13.28922
G1 X121.467 Y83.621 E13.37221
G1 X122.592 Y85.297 E13.45495
G1 X123.621 Y87.030 E13.53759
G1 X124.551 Y88.819 E13.62027
G1 X125.383 Y90.661 E13.70314
G1 X126.116 Y92.554 E13.78636
G1 X126.750 Y94.495 E13.87009
G1 X127.288 Y96.484 E13.95455
G1 X127.733 Y98.519 E14.03997
G1 X127.896 Y100.598 E14.12549
;LAYER:2
;Z:0.9
G1 F1500 X127.780 Y101.193 Z0.9 E14.12549
G1 X127.348 Y103.234 E14.23584
G1 X126.823 Y105.228 E14.32040
G1 X126.203 Y107.176 E14.40420
G1 X125.484 Y109.075 E14.48746
G1 X124.667 Y110.924 E14.57034
G1 X123.750 Y112.720 E14.65301
G1 X122.736 Y114.461 E14.73562
G1 X121.624 Y116.144 E14.81832
G1 X120.418 Y117.768 E14.90125
G1 X119.119 Y119.331 E14.98457
G1 X117.730 Y120.833 E15.06847
G1 X116.252 Y122.276 E15.15316
G1 X114.687 Y123.663 E15.23888
G1 X112.857 Y124.655 E15.32422
G1 X110.873 Y125.301 E15.40977
G1 X108.884 Y125.844 E15.49432
G1 X106.887 Y126.280 E15.57813
G1 X104.883 Y126.607 E15.66138
G1 X102.873 Y126.824 E15.74427
G1 X100.859 Y126.928 E15.82694
G1 X98.844 Y126.920 E15.90955
G1 X96.831 Y126.799 E15.99224
G1 X94.822 Y126.566 E16.07517
G1 X92.819 Y126.223 E16.15850
G1 X90.823 Y125.771 E16.24240
G1 X88.834 Y125.212 E16.32708
G1 X86.851 Y124.551 E16.41280
G1 X85.077 Y123.462 E16.49814
G1 X83.525 Y122.067 E16.58369
G1 X82.060 Y120.616 E16.66825
G1 X80.684 Y119.104 E16.75205
G1 X79.399 Y117.532 E16.83531
G1 X78.206 Y115.900 E16.91819
G1 X77.109 Y114.208 E17.00086
G1 X76.109 Y112.459 E17.08347
G1 X75.207 Y110.655 E17.16617
G1 X74.404 Y108.799 E17.24910
G1 X73.700 Y106.892 E17.33242
G1 X73.093 Y104.938 E17.41632
G1 X72.583 Y102.937 E17.50101
G1 X72.164 Y100.888 E17.58673
G1 X72.220 Y98.807 E17.67207
G1 X72.652 Y96.766 E17.75762
G1 X73.177 Y94.772 E17.84217
G1 X73.797 Y92.824 E17.92597
G1 X74.516 Y90.925 E18.00923
G1 X75.333 Y89.076 E18.09212
G1 X76.250 Y87.280 E18.17479
G1 X77.264 Y85.539 E18.25740
G1 X78.376 Y83.856 E18.34009
G1 X79.582 Y82.232 E18.42302
G1 X80.881 Y80.669 E18.50635
G1 X82.270 Y79.167 E18.59025
G1 X83.748 Y77.724 E18.67493
G1 X85.313 Y76.337 E18.76065
G1 X87.143 Y75.345 E18.84599
G1 X89.127 Y74.699 E18.93154
G1 X91.116 Y74.156 E19.01610
G1 X93.113 Y73.720 E19.09990
G1 X95.117 Y73.393 E19.18316
G1 X97.127 Y73.176 E19.26604
G1 X99.141 Y73.072 E19.34871
G1 X101.156 Y73.080 E19.43132
G1 X103.169 Y73.201 E19.51402
G1 X105.178 Y73.434 E19.59695
G1 X107.181 Y73.777 E19.68027
G1 X109.177 Y74.229 E19.76417
G1 X111.166 Y74.788 E19.84886
G1 X113.149 Y75.449 E19.93458
G1 X114.923 Y76.538 E20.01992
G1 X116.475 Y77.933 E20.10547
G1 X117.940 Y79.384 E20.19002
G1 X119.316 Y80.896 E20.27382
G1 X120.601 Y82.468 E20.35708
G1 X121.794 Y84.100 E20.43997
G1 X122.891 Y85.792 E20.52264
G1 X123.891 Y87.541 E20.60525
G1 X124.793 Y89.345 E20.68794
G1 X125.596 Y91.201 E20.77087
G1 X126.300 Y93.108 E20.85420
G1 X126.907 Y95.062 E20.93810
G1 X127.417 Y97.063 E21.02278
G1 X127.836 Y99.112 E21.10850
G1 X127.780 Y101.193 E21.19384
;LAYER:3
;Z:1.2
G1 F1500 X127.655 Y101.782 Z1.2 E21.19384
G1 X127.197 Y103.809 E21.30376
G1 X126.645 Y105.789 E21.38804
G1 X125.997 Y107.723 E21.47164
G1 X125.250 Y109.607 E21.55474
G1 X124.405 Y111.440 E21.63751
G1 X123.460 Y113.220 E21.72012
G1 X122.418 Y114.944 E21.80271
G1 X121.280 Y116.609 E21.88543
G1 X120.047 Y118.215 E21.96842
G1 X118.723 Y119.760 E22.05186
G1 X117.308 Y121.245 E22.13593
G1 X115.806 Y122.671 E22.22085
G1 X114.218 Y124.042 E22.30689
G1 X112.284 Y124.841 E22.39266
G1 X110.300 Y125.458 E22.47786
G1 X108.309 Y125.970 E22.56215
G1 X106.311 Y126.375 E22.64574
G1 X104.305 Y126.671 E22.72884
G1 X102.295 Y126.855 E22.81162
G1 X100.281 Y126.927 E22.89423
G1 X98.267 Y126.887 E22.97682
G1 X96.256 Y126.734 E23.05953
G1 X94.249 Y126.469 E23.14253
G1 X92.249 Y126.094 E23.22597
G1 X90.256 Y125.612 E23.31004
G1 X88.270 Y125.024 E23.39496
G1 X86.288 Y124.334 E23.48100
G1 X84.629 Y123.059 E23.56677
G1 X83.103 Y121.649 E23.65197
G1 X81.664 Y120.181 E23.73626
G1 X80.314 Y118.653 E23.81985
G1 X79.055 Y117.064 E23.90295
G1 X77.890 Y115.415 E23.98573
G1 X76.821 Y113.707 E24.06834
G1 X75.849 Y111.943 E24.15093
G1 X74.976 Y110.124 E24.23364
G1 X74.202 Y108.254 E24.31663
G1 X73.526 Y106.334 E24.40007
G1 X72.948 Y104.367 E24.48414
G1 X72.464 Y102.353 E24.56906
G1 X72.070 Y100.292 E24.65510
G1 X72.345 Y98.218 E24.74088
G1 X72.803 Y96.191 E24.82608
G1 X73.355 Y94.211 E24.91036
G1 X74.003 Y92.277 E24.99396
G1 X74.750 Y90.393 E25.07706
G1 X75.595 Y88.560 E25.15984
G1 X76.540 Y86.780 E25.24244
G1 X77.582 Y85.056 E25.32503
G1 X78.720 Y83.391 E25.40775
G1 X79.953 Y81.785 E25.49074
G1 X81.277 Y80.240 E25.57418
G1 X82.692 Y78.755 E25.65825
G1 X84.194 Y77.329 E25.74317
G1 X85.782 Y75.958 E25.82921
G1 X87.716 Y75.159 E25.91498
G1 X89.700 Y74.542 E26.00019
G1 X91.691 Y74.030 E26.08447
G1 X93.689 Y73.625 E26.16807
G1 X95.695 Y73.329 E26.25117
G1 X97.705 Y73.145 E26.33394
G1 X99.719 Y73.073 E26.41655
G1 X101.733 Y73.113 E26.49914
G1 X103.744 Y73.266 E26.58186
G1 X105.751 Y73.531 E26.66485
G1 X107.751 Y73.906 E26.74829
G1 X109.744 Y74.388 E26.83236
G1 X111.730 Y74.976 E26.91728
G1 X113.712 Y75.666 E27.00332
G1 X115.371 Y76.941 E27.08909
G1 X116.897 Y78.351 E27.17429
G1 X118.336 Y79.819 E27.25858
G1 X119.686 Y81.347 E27.34217
G1 X120.945 Y82.936 E27.42527
G1 X122.110 Y84.585 E27.50805
G1 X123.179 Y86.293 E27.59066
G1 X124.151 Y88.057 E27.67325
G1 X125.024 Y89.876 E27.75596
G1 X125.798 Y91.746 E27.83896
G1 X126.474 Y93.666 E27.92240
G1 X127.052 Y95.633 E28.00647
G1 X127.536 Y97.647 E28.09139
G1 X127.930 Y99.708 E28.17742
G1 X127.655 Y101.782 E28.26320
;LAYER:4
;Z:1.5
G1 F1500 X127.520 Y102.367 Z1.5 E28.26320
G1 X127.036 Y104.380 E28.37269
G1 X126.457 Y106.346 E28.45671
G1 X125.781 Y108.264 E28.54011
G1 X125.006 Y110.133 E28.62306
G1 X124.133 Y111.951 E28.70573
G1 X123.161 Y113.714 E28.78828
G1 X122.091 Y115.420 E28.87086
G1 X120.926 Y117.068 E28.95360
G1 X119.668 Y118.656 E29.03666
G1 X118.318 Y120.183 E29.12022
G1 X116.878 Y121.649 E29.20447
G1 X115.352 Y123.059 E29.28964
G1 X113.691 Y124.328 E29.37536
G1 X111.710 Y125.017 E29.46135
G1 X109.725 Y125.604 E29.54622
G1 X107.733 Y126.085 E29.63025
G1 X105.734 Y126.459 E29.71364
G1 X103.728 Y126.723 E29.79660
G1 X101.717 Y126.875 E29.87927
G1 X99.704 Y126.915 E29.96182
G1 X97.691 Y126.842 E30.04439
G1 X95.682 Y126.657 E30.12713
G1 X93.677 Y126.360 E30.21020
G1 X91.680 Y125.955 E30.29376
G1 X89.690 Y125.442 E30.37801
G1 X87.707 Y124.825 E30.46318
G1 X85.777 Y124.021 E30.54889
G1 X84.190 Y122.650 E30.63488
G1 X82.689 Y121.224 E30.71976
G1 X81.276 Y119.740 E30.80378
G1 X79.953 Y118.195 E30.88718
G1 X78.721 Y116.590 E30.97013
G1 X77.584 Y114.924 E31.05281
G1 X76.543 Y113.201 E31.13536
G1 X75.600 Y111.421 E31.21793
G1 X74.755 Y109.589 E31.30067
G1 X74.010 Y107.705 E31.38373
G1 X73.363 Y105.772 E31.46729
G1 X72.812 Y103.792 E31.55154
G1 X72.355 Y101.766 E31.63672
G1 X72.086 Y99.693 E31.72243
G1 X72.480 Y97.633 E31.80842
G1 X72.964 Y95.620 E31.89329
G1 X73.543 Y93.654 E31.97732
G1 X74.219 Y91.736 E32.06071
G1 X74.994 Y89.867 E32.14367
G1 X75.867 Y88.049 E32.22634
G1 X76.839 Y86.286 E32.30889
G1 X77.909 Y84.580 E32.39146
G1 X79.074 Y82.932 E32.47420
G1 X80.332 Y81.344 E32.55727
G1 X81.682 Y79.817 E32.64083
G1 X83.122 Y78.351 E32.72508
G1 X84.648 Y76.941 E32.81025
G1 X86.309 Y75.672 E32.89597
G1 X88.290 Y74.983 E32.98196
G1 X90.275 Y74.396 E33.06683
G1 X92.267 Y73.915 E33.15085
G1 X94.266 Y73.541 E33.23425
G1 X96.272 Y73.277 E33.31720
G1 X98.283 Y73.125 E33.39988
G1 X100.296 Y73.085 E33.48243
G1 X102.309 Y73.158 E33.56500
G1 X104.318 Y73.343 E33.64774
G1 X106.323 Y73.640 E33.73081
G1 X108.320 Y74.045 E33.81437
G1 X110.310 Y74.558 E33.89862
G1 X112.293 Y75.175 E33.98379
G1 X114.223 Y75.979 E34.06950
G1 X115.810 Y77.350 E34.15549
G1 X117.311 Y78.776 E34.24037
G1 X118.724 Y80.260 E34.32439
G1 X120.047 Y81.805 E34.40779
G1 X121.279 Y83.410 E34.49074
G1 X122.416 Y85.076 E34.57341
G1 X123.457 Y86.799 E34.65596
G1 X124.400 Y88.579 E34.73854
G1 X125.245 Y90.411 E34.82128
G1 X125.990 Y92.295 E34.90434
G1 X126.637 Y94.228 E34.98790
G1 X127.188 Y96.208 E35.07215
G1 X127.645 Y98.234 E35.15732
G1 X127.914 Y100.307 E35.24304
G1 X127.520 Y102.367 E35.32903
;LAYER:5
;Z:1.8
G1 F1500 X127.376 Y102.948 Z1.8 E35.32903
G1 X126.865 Y104.946 E35.43811
G1 X126.259 Y106.897 E35.52188
G1 X125.555 Y108.801 E35.60509
G1 X124.753 Y110.654 E35.68790
G1 X123.851 Y112.455 E35.77048
G1 X122.851 Y114.201 E35.85298
G1 X121.755 Y115.890 E35.93554
G1 X120.564 Y117.520 E36.01831
G1 X119.279 Y119.090 E36.10146
G1 X117.904 Y120.598 E36.18515
G1 X116.441 Y122.047 E36.26959
G1 X114.890 Y123.440 E36.35503
G1 X113.116 Y124.523 E36.44025
G1 X111.135 Y125.182 E36.52584
G1 X109.150 Y125.739 E36.61040
G1 X107.156 Y126.190 E36.69418
G1 X105.156 Y126.532 E36.77739
G1 X103.150 Y126.763 E36.86020
G1 X101.139 Y126.883 E36.94278
G1 X99.127 Y126.891 E37.02528
G1 X97.116 Y126.786 E37.10784
G1 X95.109 Y126.569 E37.19061
G1 X93.108 Y126.241 E37.27375
G1 X91.114 Y125.805 E37.35745
G1 X89.127 Y125.262 E37.44189
G1 X87.146 Y124.615 E37.52733
G1 X85.321 Y123.620 E37.61255
G1 X83.759 Y122.235 E37.69814
G1 X82.284 Y120.793 E37.78270
G1 X80.897 Y119.292 E37.86648
G1 X79.601 Y117.731 E37.94969
G1 X78.397 Y116.109 E38.03250
G1 X77.288 Y114.428 E38.11508
G1 X76.275 Y112.689 E38.19757
G1 X75.361 Y110.895 E38.28013
G1 X74.545 Y109.049 E38.36291
G1 X73.828 Y107.152 E38.44605
G1 X73.209 Y105.206 E38.52974
G1 X72.686 Y103.214 E38.61419
G1 X72.255 Y101.176 E38.69963
G1 X72.205 Y99.098 E38.78485
G1 X72.624 Y97.052 E38.87044
G1 X73.135 Y95.054 E38.95500
G1 X73.741 Y93.103 E39.03878
G1 X74.445 Y91.199 E39.12198
G1 X75.247 Y89.346 E39.20480
G1 X76.149 Y87.545 E39.28738
G1 X77.149 Y85.799 E39.36987
G1 X78.245 Y84.110 E39.45243
G1 X79.436 Y82.480 E39.53520
G1 X80.721 Y80.910 E39.61835
G1 X82.096 Y79.402 E39.70204
G1 X83.559 Y77.953 E39.78648
G1 X85.110 Y76.560 E39.87192
G1 X86.884 Y75.477 E39.95714
G1 X88.865 Y74.818 E40.04274
G1 X90.850 Y74.261 E40.12730
G1 X92.844 Y73.810 E40.21108
G1 X94.844 Y73.468 E40.29428
G1 X96.850 Y73.237 E40.37709
G1 X98.861 Y73.117 E40.45967
G1 X100.873 Y73.109 E40.54217
G1 X102.884 Y73.214 E40.62473
G1 X104.891 Y73.431 E40.70750
G1 X106.892 Y73.759 E40.79065
G1 X108.886 Y74.195 E40.87434
G1 X110.873 Y74.738 E40.95878
G1 X112.854 Y75.385 E41.04422
G1 X114.679 Y76.380 E41.12944
G1 X116.241 Y77.765 E41.21503
G1 X117.716 Y79.207 E41.29959
G1 X119.103 Y80.708 E41.38337
G1 X120.399 Y82.269 E41.46658
G1 X121.603 Y83.891 E41.54939
G1 X122.712 Y85.572 E41.63197
G1 X123.725 Y87.311 E41.71447
G1 X124.639 Y89.105 E41.79703
G1 X125.455 Y90.951 E41.87980
G1 X126.172 Y92.848 E41.96294
G1 X126.791 Y94.794 E42.04664
G1 X127.314 Y96.786 E42.13108
G1 X127.745 Y98.824 E42.21652
G1 X127.795 Y100.902 E42.30174
G1 X127.376 Y102.948 E42.38733
;LAYER:6
;Z:2.1
G1 F1500 X127.223 Y103.523 Z2.1 E42.38733
G1 X126.685 Y105.507 E42.49602
G1 X126.051 Y107.443 E42.57956
G1 X125.320 Y109.332 E42.66259
G1 X124.489 Y111.169 E42.74527
G1 X123.560 Y112.954 E42.82776
G1 X122.533 Y114.683 E42.91021
G1 X121.410 Y116.354 E42.99276
G1 X120.192 Y117.965 E43.07557
G1 X118.883 Y119.516 E43.15881
G1 X117.483 Y121.007 E43.24264
G1 X115.995 Y122.439 E43.32729
G1 X114.421 Y123.815 E43.41302
G1 X112.541 Y124.707 E43.49835
G1 X110.560 Y125.337 E43.58357
